icons/themes/default/sign.svg

<svg viewBox="0 0 20 20" fill="none" xmlns="http://www.w3.org/2000/svg">
<path d="M2.5 13.75H17.5M2.5 9.25L3.625 10.375M3.625 10.375L4.75 11.5M3.625 10.375L4.75 9.25M3.625 10.375L2.5 11.5M17.5 11.5H16.4503C15.625 11.5 16.4086 9.92904 15.7499 9.57673C15.0501 9.20237 14.2571 12.9484 13.6488 11.4487C13.0764 10.0374 12.3402 9.26719 11.4556 9.18599M11.4556 9.18599C11.4285 8.33245 11.3342 7.55156 11.1974 6.95605C10.7756 5.12 8.99623 3.21226 7.34526 4.33536C4.99033 5.93734 6.9137 9.15355 8.62185 10.7782M11.4556 9.18599C11.5437 11.9606 10.9222 15.5029 8.74604 15.9413C5.90992 16.5125 6.99057 12.7614 8.04565 11.4487C8.2413 11.2052 8.43339 10.9818 8.62185 10.7782M11.4556 9.18599C10.6347 9.11064 9.68608 9.62859 8.62185 10.7782M9.44555 11.4487C9.19143 11.2806 8.9097 11.052 8.62185 10.7782" stroke="currentColor" stroke-width="1.1" stroke-linecap="square"/>
</svg>

<svg xmlns="http://www.w3.org/2000/svg" fill="none" viewBox="0 0 20 20">
  <path stroke="currentColor" stroke-linecap="square" stroke-width="1.1" d="M2.5 13.75h15m-15-4.5 1.125 1.125m0 0L4.75 11.5m-1.125-1.125L4.75 9.25m-1.125 1.125L2.5 11.5m15 0h-1.05c-.825 0-.041-1.571-.7-1.923-.7-.375-1.493 3.371-2.101 1.872-.573-1.412-1.309-2.182-2.193-2.263m0 0c-.027-.854-.122-1.634-.259-2.23-.421-1.836-2.2-3.744-3.852-2.62-2.355 1.601-.431 4.818 1.277 6.442m2.834-1.592c.088 2.775-.534 6.317-2.71 6.755-2.836.571-1.755-3.18-.7-4.492.195-.244.387-.467.576-.67m2.834-1.593c-.821-.075-1.77.443-2.834 1.592m.824.67a6.181 6.181 0 0 1-.824-.67"/>
</svg>
